web/themes/custom/oh_my_pasta/images/icons/youtube.svg

<svg width="48" height="49" viewBox="0 0 48 49" fill="none" xmlns="http://www.w3.org/2000/svg">
<g clip-path="url(#clip0_1300_680)">
<rect y="0.333008" width="48" height="48" rx="8" fill="#004A36"/>
<path d="M40.5968 13.8404C39.2973 12.2956 36.8981 11.6655 32.3161 11.6655H15.6835C10.9967 11.6655 8.55681 12.3363 7.26221 13.9809C6 15.5844 6 17.9471 6 21.217V27.4496C6 33.7845 7.4976 37.0009 15.6835 37.0009H32.3162C36.2897 37.0009 38.4915 36.4449 39.9159 35.0817C41.3767 33.6837 42 31.4012 42 27.4496V21.217C42 17.7686 41.9023 15.392 40.5968 13.8404ZM29.1121 25.1937L21.5593 29.1411C21.3905 29.2293 21.2058 29.2731 21.0214 29.2731C20.8126 29.2731 20.6043 29.2169 20.4197 29.1052C20.0723 28.8947 19.8601 28.5181 19.8601 28.1118V20.2425C19.8601 19.8369 20.0717 19.4607 20.4185 19.25C20.7653 19.0394 21.1968 19.025 21.5566 19.2119L29.1094 23.1338C29.4937 23.3334 29.735 23.7301 29.7356 24.1629C29.7361 24.596 29.4958 24.9933 29.1121 25.1937Z" fill="white"/>
</g>
<defs>
<clipPath id="clip0_1300_680">
<rect width="48" height="48" fill="white" transform="translate(0 0.333008)"/>
</clipPath>
</defs>
</svg>

<svg width="48" height="49" fill="none" xmlns="http://www.w3.org/2000/svg"><g clip-path="url(#clip0_1300_680)"><rect y=".333" width="48" height="48" rx="8" fill="#004A36"/><path d="M40.597 13.84c-1.3-1.544-3.699-2.175-8.28-2.175H15.683c-4.687 0-7.127.671-8.422 2.316C6 15.584 6 17.947 6 21.217v6.233C6 33.785 7.498 37 15.684 37h16.632c3.974 0 6.175-.555 7.6-1.918C41.376 33.684 42 31.402 42 27.45v-6.233c0-3.448-.098-5.825-1.403-7.377zM29.112 25.194L21.56 29.14a1.16 1.16 0 01-1.699-1.03v-7.869a1.161 1.161 0 011.697-1.03l7.552 3.922a1.162 1.162 0 01.003 2.06z" fill="#fff"/></g><defs><clipPath id="clip0_1300_680"><path fill="#fff" transform="translate(0 .333)" d="M0 0h48v48H0z"/></clipPath></defs></svg>
